icons/midnadark/actions/24/tools-media-optical-burn.svg

<?xml version="1.0" encoding="UTF-8" standalone="no"?>
<!-- Created with Inkscape (http://www.inkscape.org/) -->

<svg
   xmlns:dc="http://purl.org/dc/elements/1.1/"
   xmlns:cc="http://creativecommons.org/ns#"
   xmlns:rdf="http://www.w3.org/1999/02/22-rdf-syntax-ns#"
   xmlns:svg="http://www.w3.org/2000/svg"
   xmlns="http://www.w3.org/2000/svg"
   xmlns:sodipodi="http://sodipodi.sourceforge.net/DTD/sodipodi-0.dtd"
   xmlns:inkscape="http://www.inkscape.org/namespaces/inkscape"
   width="22"
   height="22"
   id="svg3869"
   version="1.1"
   inkscape:version="0.91 r13725"
   sodipodi:docname="tools-media-optical-burn.svg">
  <defs
     id="defs3871">
    <linearGradient
       id="linearGradient4290-48">
      <stop
         id="stop4292-0"
         offset="0"
         style="stop-color:#a5a5a5;stop-opacity:1;" />
      <stop
         id="stop4294-0"
         offset="1"
         style="stop-color:#f5f2f5;stop-opacity:1;" />
    </linearGradient>
    <inkscape:perspective
       id="perspective4146-9"
       inkscape:persp3d-origin="12 : 8 : 1"
       inkscape:vp_z="24 : 12 : 1"
       inkscape:vp_y="0 : 1000 : 0"
       inkscape:vp_x="0 : 12 : 1"
       sodipodi:type="inkscape:persp3d" />
    <inkscape:perspective
       id="perspective4146"
       inkscape:persp3d-origin="12 : 8 : 1"
       inkscape:vp_z="24 : 12 : 1"
       inkscape:vp_y="0 : 1000 : 0"
       inkscape:vp_x="0 : 12 : 1"
       sodipodi:type="inkscape:persp3d" />
    <inkscape:perspective
       sodipodi:type="inkscape:persp3d"
       inkscape:vp_x="0 : 12 : 1"
       inkscape:vp_y="0 : 1000 : 0"
       inkscape:vp_z="24 : 12 : 1"
       inkscape:persp3d-origin="12 : 8 : 1"
       id="perspective4146-9-1" />
    <inkscape:perspective
       sodipodi:type="inkscape:persp3d"
       inkscape:vp_x="0 : 12 : 1"
       inkscape:vp_y="0 : 1000 : 0"
       inkscape:vp_z="24 : 12 : 1"
       inkscape:persp3d-origin="12 : 8 : 1"
       id="perspective4146-96" />
  </defs>
  <sodipodi:namedview
     id="base"
     pagecolor="#ffffff"
     bordercolor="#666666"
     borderopacity="1.0"
     inkscape:pageopacity="0.0"
     inkscape:pageshadow="2"
     inkscape:zoom="11.313708"
     inkscape:cx="-20.87705"
     inkscape:cy="11.608835"
     inkscape:document-units="px"
     inkscape:current-layer="layer1"
     showgrid="true"
     fit-margin-top="0"
     fit-margin-left="0"
     fit-margin-right="0"
     fit-margin-bottom="0"
     inkscape:window-width="1366"
     inkscape:window-height="633"
     inkscape:window-x="0"
     inkscape:window-y="33"
     inkscape:window-maximized="1"
     inkscape:showpageshadow="false"
     inkscape:snap-bbox="true"
     inkscape:object-nodes="true">
    <inkscape:grid
       type="xygrid"
       id="grid4132" />
    <sodipodi:guide
       position="4,18"
       orientation="18,0"
       id="guide4138" />
    <sodipodi:guide
       position="5,3"
       orientation="0,18"
       id="guide4140" />
    <sodipodi:guide
       position="20,2.0000174"
       orientation="-18,0"
       id="guide4142" />
    <sodipodi:guide
       position="2,21"
       orientation="0,-18"
       id="guide4144" />
    <sodipodi:guide
       position="3,19.000017"
       orientation="16,0"
       id="guide4146" />
    <sodipodi:guide
       position="2,4"
       orientation="0,16"
       id="guide4148" />
    <sodipodi:guide
       position="21,20"
       orientation="-16,0"
       id="guide4150" />
    <sodipodi:guide
       position="2,20"
       orientation="0,-16"
       id="guide4152" />
  </sodipodi:namedview>
  <metadata
     id="metadata3874">
    <rdf:RDF>
      <cc:Work
         rdf:about="">
        <dc:format>image/svg+xml</dc:format>
        <dc:type
           rdf:resource="http://purl.org/dc/dcmitype/StillImage" />
        <dc:title />
      </cc:Work>
    </rdf:RDF>
  </metadata>
  <g
     inkscape:label="Capa 1"
     inkscape:groupmode="layer"
     id="layer1"
     transform="translate(-326,-534.3622)">
    <g
       id="g4155"
       transform="translate(-1,1)"
       style="fill:#ffffff;fill-opacity:1">
      <g
         inkscape:label="Capa 1"
         id="layer1-1"
         transform="translate(327,-497)"
         style="fill:#ffffff;fill-opacity:1">
        <g
           id="layer1-0"
           inkscape:label="Capa 1"
           style="fill:#ffffff;fill-opacity:1">
          <path
             style="opacity:1;fill:#ffffff;fill-opacity:1;stroke:none"
             d="M 11 3 C 6.568 3 3 6.568 3 11 C 3 15.432 6.568 19 11 19 C 15.432 19 19 15.432 19 11 C 19 6.568 15.432 3 11 3 z M 15.414062 8.5019531 C 15.428338 8.4986271 15.444305 8.5017258 15.455078 8.5117188 C 15.465866 8.521697 15.471016 8.5362702 15.46875 8.5507812 C 15.468456 8.5526356 15.4397 8.7456713 15.501953 9.0078125 C 15.559217 9.2488346 15.707586 9.6004474 16.087891 9.9042969 C 16.574232 10.292858 16.930206 10.702201 17.144531 11.121094 C 17.33603 11.495365 17.409808 11.867597 17.367188 12.226562 C 17.301549 12.779499 16.953339 13.253718 16.435547 13.496094 C 16.429572 13.49889 16.424312 13.5 16.417969 13.5 C 16.407211 13.5 16.396958 13.495787 16.388672 13.488281 C 16.3755 13.476346 16.369098 13.458184 16.375 13.441406 C 16.561113 12.91237 16.301683 12.389054 16.109375 12.240234 C 16.077689 12.358884 15.971514 12.595849 15.625 12.650391 C 15.612373 12.652407 15.599631 12.648896 15.589844 12.640625 C 15.580057 12.632354 15.574395 12.620211 15.574219 12.607422 C 15.570451 12.322778 15.422426 11.834964 15.046875 11.640625 C 15.170646 11.971951 15.011687 12.15231 14.830078 12.357422 C 14.623833 12.59032 14.38998 12.854154 14.457031 13.439453 C 14.457797 13.44272 14.458984 13.445716 14.458984 13.449219 C 14.458984 13.473605 14.438449 13.494141 14.414062 13.494141 C 14.408014 13.494141 14.402209 13.492766 14.396484 13.490234 C 14.248357 13.424699 13.887473 13.225788 13.75 12.804688 C 13.621255 12.410313 13.718553 11.928765 14.039062 11.373047 C 14.103509 11.261329 14.122896 11.165196 14.097656 11.076172 C 14.047 10.897565 13.814676 10.771522 13.644531 10.679688 C 13.631639 10.672726 13.622565 10.659101 13.621094 10.644531 C 13.619622 10.629947 13.625475 10.616811 13.636719 10.607422 C 13.817607 10.456395 14.03686 10.378906 14.287109 10.378906 C 14.382079 10.378906 14.481377 10.389975 14.583984 10.412109 C 14.387938 9.923987 14.4182 9.4146503 14.669922 9.0019531 C 14.898964 8.6264019 15.393091 8.5068834 15.414062 8.5019531 z M 11 10 C 11.553999 10 12 10.446001 12 11 C 12 11.553999 11.553999 12 11 12 C 10.446001 12 10 11.553999 10 11 C 10 10.446001 10.446001 10 11 10 z "
             transform="translate(0,1030.3622)"
             id="rect4119" />
        </g>
      </g>
      <g
         style="fill:#ffffff;fill-opacity:1"
         transform="matrix(0.01471711,0,0,0.01471711,339.29698,541.8622)"
         id="g3-6">
        <g
           style="fill:#ffffff;fill-opacity:1"
           id="g5" />
      </g>
    </g>
  </g>
</svg>

<svg xmlns="http://www.w3.org/2000/svg" viewBox="0 0 22 22"><path d="m11 3c-4.432 0-8 3.568-8 8 0 4.432 3.568 8 8 8 4.432 0 8-3.568 8-8 0-4.432-3.568-8-8-8m4.414 5.502c.014-.003.03 0 .041.001.011.001.016.025.014.039 0 .002-.029.195.033.457.057.241.206.593.586.896.486.389.842.798 1.057 1.217.191.374.265.747.223 1.105-.066.553-.414 1.027-.932 1.27-.006.003-.011.004-.018.004-.011 0-.021-.004-.029-.012-.013-.012-.02-.03-.014-.047.186-.529-.073-1.052-.266-1.201-.032.119-.138.356-.484.41-.013.002-.025-.0001-.035-.001-.001-.008-.015-.02-.016-.033-.004-.285-.152-.772-.527-.967.124.331-.035.512-.217.717-.206.233-.44.497-.373 1.082.0001.003.002.006.002.001 0 .024-.021.045-.045.045-.006 0-.012-.0001-.018-.004-.148-.066-.509-.264-.646-.686-.129-.394-.031-.876.289-1.432.064-.112.084-.208.059-.297-.051-.179-.283-.305-.453-.396-.013-.007-.022-.021-.023-.035-.0001-.015.004-.028.016-.037.181-.151.4-.229.65-.229.095 0 .194.011.297.033-.196-.488-.166-.997.086-1.41.229-.376.723-.495.744-.5m-4.414 1.498c.554 0 1 .446 1 1 0 .554-.446 1-1 1-.554 0-1-.446-1-1 0-.554.446-1 1-1" transform="translate(0-.002)" fill="#fff"/></svg>
